X: 40215
T: Tinker's Stick, The
R: reel
M: 4/4
K: Gmajor
B3G ABge|d2BG Ae3|B3A G3B|dBAd BGGE|
DBBG ABge|d2BG Ae3|BABG A3B|dBAd BGBd||
gzgd g2bg|egdg egde|g3d g2bg|ea3 ea3|
g3d g2bg|egdg egd2|egge dGBd|e2ae gedc||

